X:1
T:Title
%%score { 1 | 2 }
L:1/8
Q:1/4=100
M:4/4
K:Bb
V:1 treble nm="Grand Piano"
V:2 bass 
V:1
 [DF]>[DF] [DF]>[EG] [DF]2 [B,D]2 | [DB]>[FB] [GB]>[EG] [DF]4 | E>E C>E A2 G2 | A>G F>E D4 | %4
w: James~M.~Black * * * * *||||
 [DF]>[DF] [DF]>[EG] [DF]2 [Fd]2 | d>_d =d>[FB] G4 | G>G [Ge]>[Ge] [Gd]2 [Gc]2 | B>A G>A [DB]4 | %8
w: ||||
 c2 F2 c2 F2 | [DF]>[DF] [FB]>c d4 | c2 d2 c2 A2 | [=Ec]>[EB] [EA]>[EG] F4 | d2 [FB]2 d2 F2 | %13
w: |||||
 B>[FB] c>d [Ge]4 | [EG]>[EG] [Ge]>[Ge] [Gd]2 [Gc]2 | B>A G>A [DB]4 |] %16
w: |||
V:2
 [B,,B,]>[B,,B,] [B,,B,]>[B,,B,] [B,,B,]2 [B,,F,]2 | [B,,B,]>[D,B,] [E,B,]>[E,B,] [B,,B,]4 | %2
 [F,A,C]>[F,A,C] [F,A,]>[F,A,C] [F,CE]2 [F,CE]2 | [F,CE]>[F,CE] [F,B,D]>[F,C] [B,,F,B,]4 | %4
 [B,,B,]>[B,,B,] [B,,B,]>[B,,B,] [B,,B,]2 [B,,B,]2 | [B,F]>[B,=E] [B,F]>[K:bass][D,B,] [E,B,_E]4 | %6
 [E,B,E]>[E,B,E] [C,C]>[C,C] [D,=B,]2 [E,C]2 | [F,DF]>[F,CF] [F,B,E]>[F,CE] [B,,B,]4 | %8
 [F,A,E]2 [F,A,E]2 [F,A,E]2 [F,A,E]2 | [B,,B,]>[B,,B,] [D,B,]>[K:treble][F,A,F] [B,F]4 | %10
 [F,A,F]2 [F,B,F]2 [F,A,F]2[K:bass] [F,F]2 | [C,G,]>[C,G,] [C,C]>[C,B,] [F,A,]4 | %12
 [B,F]2 [D,B,]2 [F,B,F]2 [B,D]2 | [B,D]>[D,B,][K:treble] [F,A,F]>[B,_A][K:bass] [E,B,]4 | %14
 [E,B,]>[E,B,] [C,C]>[C,C] [D,=B,]2 [E,C]2 | [F,DF]>[F,CF] [F,B,E]>[F,CE] [B,,B,]4 |] %16

